resources/svg/screen.svg

<svg xmlns="http://www.w3.org/2000/svg" viewBox="0 0 15 15" fill="currentColor"><path d="M1.5 1C0.671573 1 0 1.67157 0 2.5V10.5C0 11.3284 0.671574 12 1.5 12L13.5 12C14.3284 12 15 11.3284 15 10.5V2.5C15 1.67157 14.3284 1 13.5 1H1.5Z" fill="black"/><path d="M4 15H11V14H4V15Z" fill="black"/></svg>

<svg xmlns="http://www.w3.org/2000/svg" viewBox="0 0 15 15" fill="currentColor"><path d="M1.5 1A1.5 1.5 0 000 2.5v8A1.5 1.5 0 001.5 12h12a1.5 1.5 0 001.5-1.5v-8A1.5 1.5 0 0013.5 1h-12zM4 15h7v-1H4v1z" fill="currentColor"/></svg>
